X: 27
T: The PLIGHTED TROTH
C: Andrew Rankine
R: jig
B: "The Complete Andrew Rankine Collection of Scottish Country Dance Tunes" p.32
Z: 2017 John Chambers <jc:trillian.mit.edu>
M: 6/8
L: 1/8
K: D
FG |\
"D"A3 DEF | B3 A3 | A^GA dcB | "A7"c3- cEF |\
G3 EFG | c3 B3 | ABA AE^E | "D"F3- FG^G |
y4 |\
A3 DEF | "Ddim"B3 "D"A3 | A^GA "D7"dc=c | "G"B3- BGA |\
BcB dcB | "D"ABA Fz d | "A7"cBA GFE | "D"D3 z |]
FG |\
ABA DEF | B3 A3 | ABc def | "A7"g3 zEF |\
GAG EFG | c3 B3 | ABc de^e | "D"f3 FG^G |
y4 |\
ABA FED | "Ddim"B3 A3 | ABA "D7"dc=c | "G"B3- BGA |\
BcB dcB | "D"ABA Fz d | "A7"cBA GFE | "D"D3- D |]

%%sep 1 1 500

